icons/loader.svg

<svg width="24" height="24" viewBox="0 0 24 24" fill="none" xmlns="http://www.w3.org/2000/svg">
<path fill-rule="evenodd" clip-rule="evenodd" d="M12 2C12.5523 2 13 2.44772 13 3V6C13 6.55228 12.5523 7 12 7C11.4477 7 11 6.55228 11 6V3C11 2.44772 11.4477 2 12 2ZM3.33974 7C3.61588 6.52171 4.22747 6.35783 4.70576 6.63397L7.30384 8.13397C7.78213 8.41012 7.94601 9.02171 7.66987 9.5C7.39372 9.97829 6.78213 10.1422 6.30384 9.86602L3.70576 8.36602C3.22747 8.08988 3.0636 7.47829 3.33974 7ZM20.6602 7C20.9364 7.47829 20.7725 8.08988 20.2942 8.36603L17.6961 9.86603C17.2179 10.1422 16.6063 9.97829 16.3301 9.5C16.054 9.02171 16.2179 8.41012 16.6961 8.13397L19.2942 6.63397C19.7725 6.35783 20.3841 6.52171 20.6602 7ZM7.66987 14.5C7.94601 14.9783 7.78213 15.5899 7.30384 15.866L4.70576 17.366C4.22747 17.6422 3.61588 17.4783 3.33974 17C3.0636 16.5217 3.22747 15.9101 3.70577 15.634L6.30384 14.134C6.78213 13.8578 7.39372 14.0217 7.66987 14.5ZM16.3301 14.5C16.6063 14.0217 17.2179 13.8578 17.6961 14.134L20.2942 15.634C20.7725 15.9101 20.9364 16.5217 20.6602 17C20.3841 17.4783 19.7725 17.6422 19.2942 17.366L16.6961 15.866C16.2179 15.5899 16.054 14.9783 16.3301 14.5ZM12 17C12.5523 17 13 17.4477 13 18V21C13 21.5523 12.5523 22 12 22C11.4477 22 11 21.5523 11 21V18C11 17.4477 11.4477 17 12 17Z" fill="black"/>
</svg>

<svg
  width="24"
  height="24"
  viewBox="0 0 24 24"
  xmlns="http://www.w3.org/2000/svg"
>
  <path
    fill-rule="evenodd"
    clip-rule="evenodd"
    d="M12 2a1 1 0 0 1 1 1v3a1 1 0 1 1-2 0V3a1 1 0 0 1 1-1zM3.34 7a1 1 0 0 1 1.366-.366l2.598 1.5a1 1 0 0 1-1 1.732l-2.598-1.5A1 1 0 0 1 3.34 7zm17.32 0a1 1 0 0 1-.366 1.366l-2.598 1.5a1 1 0 0 1-1-1.732l2.598-1.5A1 1 0 0 1 20.66 7zM7.67 14.5a1 1 0 0 1-.366 1.366l-2.598 1.5a1 1 0 1 1-1-1.732l2.598-1.5a1 1 0 0 1 1.366.366zm8.66 0a1 1 0 0 1 1.366-.366l2.598 1.5a1 1 0 1 1-1 1.732l-2.598-1.5a1 1 0 0 1-.366-1.366zM12 17a1 1 0 0 1 1 1v3a1 1 0 1 1-2 0v-3a1 1 0 0 1 1-1z"
  />
</svg>
